tools/download-figma-icons/icons/outlined-medium/worldwide.svg

<svg width="24" height="24" viewBox="0 0 24 24" fill="none" xmlns="http://www.w3.org/2000/svg">
<path fill-rule="evenodd" clip-rule="evenodd" d="M14.5588 20.818C15.7288 19.0868 16.4934 16.1528 16.58 12.6562H21.1541C20.8771 16.5432 18.1799 19.7654 14.5588 20.818ZM2.84534 12.6562H7.41941C7.50603 16.1528 8.27056 19.0868 9.44066 20.818C5.82013 19.7654 3.12228 16.5432 2.84534 12.6562ZM9.44066 3.1826C8.27056 4.91379 7.50603 7.84788 7.41941 11.3437H2.84534C3.12228 7.45741 5.82013 4.23523 9.44066 3.1826ZM8.73125 11.3438C8.86512 6.28603 10.5117 2.8125 12 2.8125C13.4877 2.8125 15.1343 6.28603 15.2682 11.3438H8.73125ZM12 21.1875C10.5117 21.1875 8.86512 17.7146 8.73125 12.6562H15.2682C15.1343 17.7146 13.4877 21.1875 12 21.1875ZM21.1541 11.3437H16.58C16.4934 7.84788 15.7288 4.91379 14.5588 3.1826C18.1799 4.23523 20.8771 7.45741 21.1541 11.3437ZM12 1.5C6.20991 1.5 1.5 6.21056 1.5 12C1.5 17.7901 6.20991 22.5 12 22.5C17.7894 22.5 22.5 17.7901 22.5 12C22.5 6.21056 17.7894 1.5 12 1.5Z" fill="black"/>
</svg>

<svg xmlns="http://www.w3.org/2000/svg" width="24" height="24" fill="none" viewBox="0 0 24 24"><path fill="currentColor" fill-rule="evenodd" d="M14.559 20.818c1.17-1.731 1.934-4.665 2.021-8.162h4.574a9.2 9.2 0 0 1-6.595 8.162M2.845 12.656H7.42c.087 3.497.852 6.43 2.022 8.162a9.2 9.2 0 0 1-6.596-8.162m6.596-9.473c-1.17 1.73-1.935 4.665-2.022 8.16H2.845c.277-3.886 2.975-7.108 6.596-8.16m-.71 8.16c.134-5.057 1.78-8.53 3.269-8.53 1.488 0 3.134 3.473 3.268 8.53zM12 21.189c-1.488 0-3.135-3.473-3.269-8.532h6.537c-.134 5.059-1.78 8.532-3.268 8.532m9.154-9.844H16.58c-.087-3.496-.851-6.43-2.021-8.161a9.2 9.2 0 0 1 6.595 8.16M12 1.5C6.21 1.5 1.5 6.21 1.5 12S6.21 22.5 12 22.5 22.5 17.79 22.5 12 17.79 1.5 12 1.5" clip-rule="evenodd"/></svg>
